docs/public/static/branding/pricing/netflix-enterprise.svg

<svg width="118" height="32" viewBox="0 0 118 32" fill="none" xmlns="http://www.w3.org/2000/svg">
<path fill-rule="evenodd" clip-rule="evenodd" d="M13.0036 30.3435L13.0036 30.3435L13.0035 30.3435C12.2695 30.4179 11.5275 30.4932 10.7755 30.5937L5.07619 13.8438V31.3126C3.47501 31.4816 2.00051 31.7016 0.492658 31.9266L0.492354 31.9266L0.491984 31.9267L0.491965 31.9267L0.491934 31.9267L0 32V0H4.73383L11.2114 18.1565V0H16.2253V29.9374C15.1649 30.1242 14.0932 30.2329 13.0038 30.3434L13.0038 30.3434L13.0037 30.3434L13.0037 30.3434L13.0036 30.3435ZM29.5019 11.6704L29.502 11.6704C30.6787 11.6474 31.8311 11.625 32.6999 11.625V16.6249C30.4887 16.6249 27.904 16.6249 26.0354 16.7186V24.1563C26.8656 24.1031 27.6959 24.0449 28.5268 23.9867C30.6258 23.8395 32.7293 23.692 34.8487 23.6248V28.4371L21.0524 29.531V0H34.8487V5.00001H26.0354V11.7188C27.0211 11.7188 28.2747 11.6943 29.5019 11.6704ZM48.209 5.00012H53.3786L53.3789 0H38.0567V5.00012H43.2264V28.0624C44.8455 28.0001 46.5273 28.0001 48.209 28.0001V5.00012ZM61.4757 11.3751H68.2961V16.375H61.4757V27.7189H56.586V0H70.5072V5.00001H61.4757V11.3751ZM84.8095 23.6452C82.7567 23.5182 80.6723 23.3892 78.6042 23.3437V0H73.6215V28.0624C78.1683 28.1564 82.6218 28.4373 87.0751 28.7187V23.7812C86.3259 23.739 85.5698 23.6922 84.8095 23.6452ZM91.2793 29.0625L91.541 29.0779C93.0515 29.1669 94.638 29.2604 96.1687 29.4374V0H91.2793V29.0625ZM111.678 15.2188L118 0H112.55L109.062 8.40627L105.792 0H100.436L106.228 15.0311L99.8129 29.6874C100.56 29.7907 101.296 29.8674 102.03 29.9439C103.072 30.0523 104.11 30.1605 105.169 30.3439L108.813 21.8439L112.394 31.0937C112.861 31.1718 113.328 31.2518 113.794 31.3318C115.196 31.5721 116.598 31.8125 118 32L111.678 15.2188Z" fill="#D81F26"/>
</svg>

<svg width="118" height="32" fill="none" xmlns="http://www.w3.org/2000/svg"><path fill-rule="evenodd" clip-rule="evenodd" d="M13 30.34c-.73.08-1.47.15-2.22.25l-5.7-16.75v17.47c-1.6.17-3.08.4-4.59.62L0 32V0h4.73l6.48 18.16V0h5.02v29.94c-1.07.18-2.14.3-3.23.4zm16.5-18.67c1.18-.02 2.33-.04 3.2-.04v5c-2.21 0-4.8 0-6.66.09v7.44l2.49-.17c2.1-.15 4.2-.3 6.32-.37v4.82l-13.8 1.1V0h13.8v5h-8.81v6.72c.98 0 2.23-.03 3.46-.05zM48.2 5h5.18V0H38.06v5h5.17v23.06c1.62-.06 3.3-.06 4.98-.06V5zm13.28 6.38h6.82v5h-6.82v11.34h-4.9V0h13.93v5h-9.03v6.38zM84.8 23.65c-2.05-.13-4.14-.26-6.2-.3V0h-4.99v28.06c4.55.1 9 .38 13.46.66v-4.94l-2.27-.13zm6.47 5.41l.26.02c1.51.09 3.1.18 4.63.36V0h-4.9v29.06zm20.4-13.84L118 0h-5.45l-3.49 8.4L105.8 0h-5.35l5.79 15.03L99.8 29.7c.75.1 1.49.18 2.22.25 1.04.11 2.08.22 3.14.4l3.64-8.5 3.58 9.25 1.4.24c1.4.24 2.8.48 4.21.67l-6.32-16.78z" fill="#D81F26"/></svg>
